incomeartour/img/countries/germany.svg

<svg width="26" height="25" viewBox="0 0 26 25" fill="none" xmlns="http://www.w3.org/2000/svg">
<g clip-path="url(#clip0)">
<path d="M25.0678 9.76986H0.0678711V4.74111C0.0678711 4.50308 0.260888 4.31006 0.498925 4.31006H24.6368C24.8749 4.31006 25.0679 4.50308 25.0679 4.74111L25.0678 9.76986Z" fill="#464655"/>
<path d="M24.6368 20.6894H0.498925C0.260888 20.6894 0.0678711 20.4964 0.0678711 20.2583V15.2296H25.0678V20.2583C25.0678 20.4964 24.8748 20.6894 24.6368 20.6894Z" fill="#FFE15A"/>
<path d="M25.0678 9.76978H0.0678711V15.2292H25.0678V9.76978Z" fill="#FF4B55"/>
</g>
<defs>
<clipPath id="clip0">
<rect width="25" height="25" fill="white" transform="translate(0.0673828 -0.000244141)"/>
</clipPath>
</defs>
</svg>

<svg width="26" height="25" fill="none" xmlns="http://www.w3.org/2000/svg"><g clip-path="url(#clip0)"><path d="M25.068 9.77h-25V4.74a.43.43 0 01.43-.43h24.139a.43.43 0 01.43.43v5.03z" fill="#464655"/><path d="M24.637 20.69H.499a.431.431 0 01-.431-.432V15.23h25v5.028a.431.431 0 01-.431.431z" fill="#FFE15A"/><path d="M25.068 9.77h-25v5.46h25V9.77z" fill="#FF4B55"/></g><defs><clipPath id="clip0"><path fill="#fff" transform="translate(.067)" d="M0 0h25v25H0z"/></clipPath></defs></svg>
